X: 134
T:Missa Hercules dux Ferrarie / Sanctus
N: Derived from Jos1101d-Missa_Hercules_dux_Ferrarie-Sanctus.krn
C: Josquin des Prez
%%abc-version 2.0
%%abcx-abcm2ps-target-version 5.9.1 (29 Sep 2008)
%%abc-creator hum2abc beta
%%abcx-conversion-date 2019/02/12 16:15:44
%%abc-edited-by Jesse Rodin
%%abc-edited-by Jesse Rodin; Victoria Chang 2011/09/11
%%abcx-initial-encoding-date 2011/09/11/
%%humdrum-veritas 3423581915
%%humdrum-veritas-data 4110987806
%%linebreak <none>
%%barnumbers 0
L: 1/4
M: 3/1
Q: 1/2=120
%%staves [1 2 3 4]
V: 1 clef=treble
V: 2 clef=treble-8
V: 3 clef=treble-8
V: 4 clef=bass
K: C
[V:1] z2D3EFGA2D2 | 
[V:2] d12 | 
[V:3] z12 | 
[V:4] z12 | 
[V:1] E12 | 
[V:2] c12 | 
[V:3] z12 | 
[V:4] z2A,,3B,,C,D,E,2A,,2 | 
[V:1] z2D3EFGA2D2 | 
[V:2] d12 | 
[V:3] z12 | 
[V:4] _B,,8z4 | 
[V:1] E12 | 
[V:2] c12 | 
[V:3] z12 | 
[V:4] z2A,,3B,,C,D,E,2A,,2 | 
[V:1] D2d3c_B2AFB2 | 
[V:2] d12 | 
[V:3] z12 | 
[V:4] _B,,2G,,3A,,B,,C,D,2G,,2 | 
[V:1] A2D3EFGA2D2 | 
[V:2] f12 | 
[V:3] z12 | 
[V:4] D,12 | 
[V:1] E2C3DEFG2C2 | 
[V:2] e12 | 
[V:3] z12 | 
[V:4] z2A,,3B,,C,D,E,2A,,2 | 
[V:1] D2d3c_B2AFB2 | 
[V:2] d12 | 
[V:3] z12 | 
[V:4] _B,,2G,,3A,,B,,C,D,2G,,2 | 
[V:1] A2F4D2F4 | 
[V:2] z4d8 | 
[V:3] D12 | 
[V:4] z2D,3E,F,G,A,2D,2 | 
[V:1] E8z2E2 | 
[V:2] G2c3BA2G2A2 | 
[V:3] C12 | 
[V:4] E,2A,,3B,,C,D,E,2A,,2 | 
[V:1] F6D2F4 | 
[V:2] F2D2d8 | 
[V:3] D12 | 
[V:4] z2D,3E,F,G,A,2D,2 | 
[V:1] E8z2E2 | 
[V:2] G2c3BA2G2A2 | 
[V:3] C12 | 
[V:4] E,2A,,3B,,C,D,E,2A,,2 | 
[V:1] D2d3c_B2AFB2 | 
[V:2] F2_B3AG2F2G2 | 
[V:3] D12 | 
[V:4] _B,,2G,,3A,,B,,C,D,2G,,2 | 
[V:1] A4D2A4F2 | 
[V:2] D2f3ed2c2d2 | 
[V:3] F12 | 
[V:4] z2D,3E,F,G,A,2D,2 | 
[V:1] G2C3DEFG2C2 | 
[V:2] G2A2c3BG2A2 | 
[V:3] E12 | 
[V:4] E,2A,,3B,,C,D,E,2A,,2 | 
[V:1] D2d3c_B2AFB2 | 
[V:2] F2_B3AG2FDG2 | 
[V:3] D12- | 
[V:4] _B,,2G,,3A,,B,,C,D,2G,,2 | 
[V:1] A12 ||  
[V:2] F12 ||  
[V:3] D12 ||  
[V:4] D,12 ||  
[V:1]  [K:C] [K:clef=treble][M:2/1]z8 | 
[V:2]  [K:C] [K:clef=treble-8][M:2/1]z4A4 | 
[V:3]  [K:C] [K:clef=treble-8][M:2/1]z8 | 
[V:4]  [K:C] [K:clef=bass][M:2/1]D,4F,4 | 
[V:1] z8 | 
[V:2] c4B4 | 
[V:3] z8 | 
[V:4] E,4G,4- | 
[V:1] z8 | 
[V:2] d6cB | 
[V:3] z8 | 
[V:4] G,2F,E,D,2E,2 | 
[V:1] z8 | 
[V:2] A2B2c2d2 | 
[V:3] z8 | 
[V:4] F,2G,2A,2D,2 | 
[V:1] z8 | 
[V:2] e2A2e4 | 
[V:3] z8 | 
[V:4] A,4z2A,,2 | 
[V:1] z8 | 
[V:2] z2E2G4 | 
[V:3] z8 | 
[V:4] C,4B,,4 | 
[V:1] z8 | 
[V:2] F4A4- | 
[V:3] z8 | 
[V:4] D,6C,B,, | 
[V:1] z8 | 
[V:2] A2GFE2F2 | 
[V:3] z8 | 
[V:4] A,,2B,,2C,2D,2 | 
[V:1] z8 | 
[V:2] G2A2B2E2 | 
[V:3] z8 | 
[V:4] E,2A,,2E,4 | 
[V:1] z8 | 
[V:2] B4z2B2 | 
[V:3] z8 | 
[V:4] z2E,2G,4 | 
[V:1] z8 | 
[V:2] d4c4 | 
[V:3] z8 | 
[V:4] F,4A,4- | 
[V:1] z8 | 
[V:2] e6dc | 
[V:3] z8 | 
[V:4] A,2G,F,E,2F,2 | 
[V:1] z8 | 
[V:2] B2c2d2e2 | 
[V:3] z8 | 
[V:4] G,2A,2D,2A,2 | 
[V:1] z8 | 
[V:2] A2e2z2e2- | 
[V:3] z8 | 
[V:4] z2A,4G,2 | 
[V:1] z8 | 
[V:2] e2d2e2c2 | 
[V:3] z8 | 
[V:4] A,2F,2E,2A,2 | 
[V:1] z8 | 
[V:2] B2e2d2B2 | 
[V:3] z8 | 
[V:4] G,2E,2z2G,2- | 
[V:1] z8 | 
[V:2] z2d4c2 | 
[V:3] z8 | 
[V:4] G,2F,2G,2E,2 | 
[V:1] z8 | 
[V:2] d2B2A2d2 | 
[V:3] z8 | 
[V:4] D,2G,2F,2D,2 | 
[V:1] z8 | 
[V:2] c2A2z2A2 | 
[V:3] z8 | 
[V:4] z2D,2E,2F,2 | 
[V:1] z8 | 
[V:2] B2c2d2B2 | 
[V:3] z8 | 
[V:4] G,2E,2F,2G,2 | 
[V:1] z8 | 
[V:2] c2d2e2A2 | 
[V:3] z8 | 
[V:4] A,2D,2z2A,2- | 
[V:1] z8 | 
[V:2] z2e4d2 | 
[V:3] z8 | 
[V:4] A,2G,2A,2_B,2 | 
[V:1] z8 | 
[V:2] e2f2d2e2 | 
[V:3] z8 | 
[V:4] G,2A,2z2A,2- | 
[V:1] z8 | 
[V:2] z2e4d2 | 
[V:3] z8 | 
[V:4] A,2G,2A,2_B,2 | 
[V:1] z8 | 
[V:2] e2f2d2e2 | 
[V:3] z8 | 
[V:4] G,2A,2z2A,,2- | 
[V:1] z8 | 
[V:2] z2E3DEF | 
[V:3] z8 | 
[V:4] A,,G,,A,,B,,C,B,,C,A,, | 
[V:1] z8 | 
[V:2] GFGEFEFG | 
[V:3] z8 | 
[V:4] B,,A,,B,,C,D,2B,,2 | 
[V:1] z8 | 
[V:2] A2F2E2e2 | 
[V:3] z8 | 
[V:4] A,,2A,2G,2A,2 | 
[V:1] z8 | 
[V:2] d2e2A2e2 | 
[V:3] z8 | 
[V:4] D,2A,2z2A,,2- | 
[V:1] z8 | 
[V:2] z2E3DEF | 
[V:3] z8 | 
[V:4] A,,G,,A,,B,,C,B,,C,A,, | 
[V:1] z8 | 
[V:2] GFGEFEFG | 
[V:3] z8 | 
[V:4] B,,A,,B,,C,D,2B,,2 | 
[V:1] z8 | 
[V:2] A2F2E2A2- | 
[V:3] z8 | 
[V:4] A,,2D,3C,D,E, | 
[V:1] z8 | 
[V:2] AGABcBcA | 
[V:3] z8 | 
[V:4] F,E,F,D,E,D,E,F, | 
[V:1] z8 | 
[V:2] BABcd2B2 | 
[V:3] z8 | 
[V:4] G,2E,2D,4 | 
[V:1] z8 | 
[V:2] A4z2A2- | 
[V:3] z8 | 
[V:4] z2D,3C,D,E, | 
[V:1] z8 | 
[V:2] AGABcBcA | 
[V:3] z8 | 
[V:4] F,E,F,D,E,D,E,F, | 
[V:1] z8 | 
[V:2] BABcdcdB | 
[V:3] z8 | 
[V:4] G,F,G,E,F,E,F,G, | 
[V:1] z8 | 
[V:2] cBcde2c2 | 
[V:3] z8 | 
[V:4] A,2F,2E,4 | 
[V:1] z8 ||  
[V:2] B4A4 ||  
[V:3] z8 ||  
[V:4] D,8 ||  
[V:1]  [K:C] [K:clef=treble][M:2/1]z8 | 
[V:2]  [K:C] [K:clef=treble-8][M:2/1]DEFGA2_B2- | 
[V:3]  [K:C] [K:clef=treble-8][M:2/1]z8 | 
[V:4]  [K:C] [K:clef=bass][M:2/1]z8 | 
[V:1] DEFGA2_B2- | 
[V:2] BAA3Dd2 | 
[V:3] z8 | 
[V:4] z8 | 
[V:1] BAA3Dd2 | 
[V:2] c2A2_B4 | 
[V:3] z8 | 
[V:4] z8 | 
[V:1] c2A2_B4 | 
[V:2] A4z2G2 | 
[V:3] z8 | 
[V:4] z8 | 
[V:1] A4z2c2- | 
[V:2] A2D2E2F2 | 
[V:3] D4C4 | 
[V:4] z4A,,4 | 
[V:1] c2B2c3A | 
[V:2] G4z2E2 | 
[V:3] D4C4 | 
[V:4] G,,4A,,4 | 
[V:1] AF_B2A2D2 | 
[V:2] F2G2A2_B2- | 
[V:3] D4F4 | 
[V:4] z2G,,2D,4 | 
[V:1] E2C2D2F2- | 
[V:2] BAA3Dd2 | 
[V:3] E4D4 | 
[V:4] C,2A,,2_B,,4 | 
[V:1] FEA2G2c2 | 
[V:2] c3AcBe2- | 
[V:3] z8 | 
[V:4] A,,4z4 | 
[V:1] B2A2c2B2- | 
[V:2] edf2e2g2- | 
[V:3] z8 | 
[V:4] z8 | 
[V:1] BAd2c2B2- | 
[V:2] gfdfe2d2- | 
[V:3] z8 | 
[V:4] z8 | 
[V:1] BAA4^G2 | 
[V:2] dcAcB4 | 
[V:3] z8 | 
[V:4] z8 | 
[V:1] A2c2B2G2- | 
[V:2] z2A2B2c2 | 
[V:3] A4G4 | 
[V:4] z4E,4 | 
[V:1] G2F2G3E | 
[V:2] d4z2B2 | 
[V:3] A4G4 | 
[V:4] D,4E,4 | 
[V:1] ECF2E2C2 | 
[V:2] c2d2e2f2- | 
[V:3] A4c4 | 
[V:4] z2D,2A,4 | 
[V:1] D2E2z2A2 | 
[V:2] fee3cd2 | 
[V:3] B4A4 | 
[V:4] G,2E,2F,4 | 
[V:1] G3EFDFG | 
[V:2] z2e2d3B | 
[V:3] z8 | 
[V:4] E,4z4 | 
[V:1] E2A2G3E | 
[V:2] cAcdB2e2 | 
[V:3] z8 | 
[V:4] z8 | 
[V:1] FDFGE2G2- | 
[V:2] d3Bcde2- | 
[V:3] z8 | 
[V:4] z8 | 
[V:1] GFD2E4 | 
[V:2] edd2g4 | 
[V:3] z8 | 
[V:4] z8 | 
[V:1] D2F2ECc2- | 
[V:2] f2d2e2f2 | 
[V:3] d4c4 | 
[V:4] z4A,4 | 
[V:1] c2B2c3A | 
[V:2] g4z2e2 | 
[V:3] d4c4 | 
[V:4] G,4A,4 | 
[V:1] AF_B2AFB2- | 
[V:2] f2g2z2d2 | 
[V:3] d4f4 | 
[V:4] z2G,2D4 | 
[V:1] BAA4G2 | 
[V:2] e2c2z2d2 | 
[V:3] e4d4 | 
[V:4] C2A,2_B,4 | 
[V:1] A8 | 
[V:2] f2e2fde2 | 
[V:3] D2C2D2C2 | 
[V:4] A,8 | 
[V:1] F3DE2F2 | 
[V:2] A3Bc2F2 | 
[V:3] D2F2E2D2 | 
[V:4] z2D,2C,2D,2 | 
[V:1] E2G2F2G2 | 
[V:2] cABcd2B2 | 
[V:3] A2G2A2G2 | 
[V:4] A,,2E,2D,2E,2 | 
[V:1] E4z2A2- | 
[V:2] cdecdef2- | 
[V:3] A2c2B2A2 | 
[V:4] A,,2A,2G,2A,2 | 
[V:1] ABcAB2c2 | 
[V:2] fdefg2e2 | 
[V:3] d2c2d2c2 | 
[V:4] D,2A,2G,2A,2 | 
[V:1] A4G2_B2- | 
[V:2] f3ec2d2 | 
[V:3] d2f2e2d2- | 
[V:4] F,2D,2z2G,2- | 
[V:1] B2_B2B4 | 
[V:2] _B2G2g4 | 
[V:3] d8- | 
[V:4] G,2G,2G,4 | 
[V:1] A8 ||  
[V:2] f8 ||  
[V:3] d8 ||  
[V:4] D,8 ||  
[V:1]  [K:C] [K:clef=treble][M:2/1]z8 | 
[V:2]  [K:C] [K:clef=treble-8][M:2/1]d3ef2d2 | 
[V:3]  [K:C] [K:clef=treble-8][M:2/1]D8 | 
[V:4]  [K:C] [K:clef=bass][M:2/1]z8 | 
[V:1] z8 | 
[V:2] f2e4dc | 
[V:3] C8 | 
[V:4] z8 | 
[V:1] z8 | 
[V:2] B2A2B2A2- | 
[V:3] D8 | 
[V:4] z8 | 
[V:1] z8 | 
[V:2] A2GFE2A2- | 
[V:3] C8 | 
[V:4] z8 | 
[V:1] z8 | 
[V:2] AF_B2A2d2 | 
[V:3] D8 | 
[V:4] z8 | 
[V:1] z8 | 
[V:2] DEFGABcd | 
[V:3] F8 | 
[V:4] z8 | 
[V:1] z8 | 
[V:2] ecd3^c^cB | 
[V:3] E8 | 
[V:4] z8 | 
[V:1] z8 ||  
[V:2] d8 ||  
[V:3] D8 ||  
[V:4] z8 ||  
[V:1]  [K:C] [K:clef=treble][M:2/1]z8 | 
[V:2]  [K:C] [K:clef=treble-8][M:2/1]z8 | 
[V:3]  [K:C] [K:clef=treble-8][M:2/1]A8 | 
[V:4]  [K:C] [K:clef=bass][M:2/1]F,4D,2F,2- | 
[V:1] z8 | 
[V:2] z8 | 
[V:3] G8 | 
[V:4] F,2E,D,E,4 | 
[V:1] z8 | 
[V:2] z8 | 
[V:3] A8 | 
[V:4] A,,2C2A,2C2- | 
[V:1] z8 | 
[V:2] z8 | 
[V:3] G8 | 
[V:4] C2B,A,B,2E,2 | 
[V:1] z8 | 
[V:2] z8 | 
[V:3] A8 | 
[V:4] z2F,2D,E,F,D, | 
[V:1] z8 | 
[V:2] z8 | 
[V:3] c8 | 
[V:4] E,2A,,B,,C,D,E,F, | 
[V:1] z8 | 
[V:2] z8 | 
[V:3] B8 | 
[V:4] G,E,A,3^G,G,^F, | 
[V:1] z8 ||  
[V:2] z8 ||  
[V:3] A8 ||  
[V:4] A,8 ||  
[V:1]  [K:C] [K:clef=treble][M:2/1]A4_B2A2- | 
[V:2]  [K:C] [K:clef=treble-8][M:2/1]z8 | 
[V:3]  [K:C] [K:clef=treble-8][M:2/1]d8 | 
[V:4]  [K:C] [K:clef=bass][M:2/1]z8 | 
[V:1] A2GFE2A,2 | 
[V:2] z8 | 
[V:3] c8 | 
[V:4] z8 | 
[V:1] z2A2_B2A2- | 
[V:2] z8 | 
[V:3] d8 | 
[V:4] z8 | 
[V:1] A2GFE2A,2 | 
[V:2] z8 | 
[V:3] c8 | 
[V:4] z8 | 
[V:1] z2A2_B2A2- | 
[V:2] z8 | 
[V:3] d8 | 
[V:4] z8 | 
[V:1] AGFED2d2- | 
[V:2] z8 | 
[V:3] f8 | 
[V:4] z8 | 
[V:1] d2^cBcdec | 
[V:2] z8 | 
[V:3] e8 | 
[V:4] z8 | 
[V:1] d8 ||  
[V:2] z8 ||  
[V:3] d8 ||  
[V:4] z8 ||  



